svgs/duotone/container-storage.svg

<svg xmlns="http://www.w3.org/2000/svg" viewBox="0 0 640 512"><!--! Font Awesome Pro 6.6.0 by @fontawesome - https://fontawesome.com License - https://fontawesome.com/license (Commercial License) Copyright 2024 Fonticons, Inc. --><path class="fa-secondary" style="fill:var(--fa-secondary-color,inherit);opacity:var(--fa-secondary-opacity,.4);" d="M32 96l0 320 576 0 0-320L32 96zm96 56c0-13.3 10.7-24 24-24s24 10.7 24 24l0 208c0 13.3-10.7 24-24 24s-24-10.7-24-24l0-208zm112 0c0-13.3 10.7-24 24-24s24 10.7 24 24l0 208c0 13.3-10.7 24-24 24s-24-10.7-24-24l0-208zm112 0c0-13.3 10.7-24 24-24s24 10.7 24 24l0 208c0 13.3-10.7 24-24 24s-24-10.7-24-24l0-208zm112 0c0-13.3 10.7-24 24-24s24 10.7 24 24l0 208c0 13.3-10.7 24-24 24s-24-10.7-24-24l0-208z"/><path class="fa-primary" style="fill:var(--fa-primary-color,inherit);opacity:var(--fa-primary-opacity,1);" d="M32 32C14.3 32 0 46.3 0 64S14.3 96 32 96l576 0c17.7 0 32-14.3 32-32s-14.3-32-32-32L32 32zm0 384c-17.7 0-32 14.3-32 32s14.3 32 32 32l576 0c17.7 0 32-14.3 32-32s-14.3-32-32-32L32 416z"/></svg>

<svg xmlns="http://www.w3.org/2000/svg" viewBox="0 0 640 512"><!--! Font Awesome Pro 6.4.2 by @fontawesome - https://fontawesome.com License - https://fontawesome.com/license (Commercial License) Copyright 2023 Fonticons, Inc. --><path class="fa-primary" style="fill:var(--fa-primary-color,inherit);opacity:var(--fa-primary-opacity,1);" d="M32 32C14.3 32 0 46.3 0 64S14.3 96 32 96H608c17.7 0 32-14.3 32-32s-14.3-32-32-32H32zm0 384c-17.7 0-32 14.3-32 32s14.3 32 32 32H608c17.7 0 32-14.3 32-32s-14.3-32-32-32H32z"/><path class="fa-secondary" style="fill:var(--fa-secondary-color,inherit);opacity:var(--fa-secondary-opacity,.4);" d="M608 96H32V416H608V96zM176 152V360c0 13.3-10.7 24-24 24s-24-10.7-24-24V152c0-13.3 10.7-24 24-24s24 10.7 24 24zm112 0V360c0 13.3-10.7 24-24 24s-24-10.7-24-24V152c0-13.3 10.7-24 24-24s24 10.7 24 24zm112 0V360c0 13.3-10.7 24-24 24s-24-10.7-24-24V152c0-13.3 10.7-24 24-24s24 10.7 24 24zm112 0V360c0 13.3-10.7 24-24 24s-24-10.7-24-24V152c0-13.3 10.7-24 24-24s24 10.7 24 24z"/></svg>
